assets/images/star-empty.svg

<svg viewBox="0 0 46.92139 44.625" xmlns="http://www.w3.org/2000/svg"><path d="m46.92139 18.34766-1.10839-3.41211-14.20558-2.06348-6.35303-12.87207h-3.58691l-6.353 12.87207-14.20608 2.06348-1.1084 3.41211 10.2793 10.01953-2.4263 14.14941 2.90185 2.1084 12.70606-6.68066 12.70609 6.68066 2.90186-2.1084-2.42677-14.14941zm-12.48 20.85058-10.04979-5.28418h-1.86133l-10.0498 5.28418 1.91894-11.1914-.57519-1.77051-8.13037-7.92481 11.23633-1.63183 1.50582-1.09469 5.02494-10.1807 5.0249 10.1807 1.50586 1.09473 11.23584 1.63183-8.13037 7.92481-.5752 1.77051z" fill="#0743ff"/></svg>

<svg xmlns="http://www.w3.org/2000/svg" viewBox="0 0 46.92139 44.625"><defs><style>.cls-1{fill:#0743ff;}</style></defs><title>star-empty</title><g id="Layer_2" data-name="Layer 2"><g id="Layer_1-2" data-name="Layer 1"><path class="cls-1" d="M46.92139,18.34766,45.813,14.93555,31.60742,12.87207,25.25439,0H21.66748l-6.353,12.87207L1.1084,14.93555,0,18.34766,10.2793,28.36719,7.853,42.5166l2.90185,2.1084,12.70606-6.68066L36.167,44.625l2.90186-2.1084L36.64209,28.36719Zm-12.48,20.85058L24.3916,33.91406H22.53027l-10.0498,5.28418,1.91894-11.1914-.57519-1.77051L5.69385,18.31152l11.23633-1.63183L18.436,15.585,23.46094,5.4043,28.48584,15.585l1.50586,1.09473,11.23584,1.63183-8.13037,7.92481-.5752,1.77051Z"/></g></g></svg>
